highlights/14.svg

<svg viewBox="0 0 92 41" fill="none" xmlns="http://www.w3.org/2000/svg" preserveAspectRatio="none">
    <path d="M13.2228 27.2898L12.8915 26.5609C12.5714 26.5048 12.2647 28.3481 11.9225 27.0422L10.6912 27.7641C10.5065 27.3657 10.6912 27.7442 10.4753 28.0047C9.47302 29.2289 7.94149 28.0596 7.01032 27.9498C6.70801 27.9007 6.36127 28.0876 6.07238 27.9077C5.41885 27.5503 4.81201 27.5573 3.98083 27.0901C3.65181 26.8985 3.30289 27.1321 2.96721 27.0352C1.98924 26.7058 1.04691 25.4886 0 25.735C2.36055 27.4475 4.97212 28.6588 7.59041 28.9474C9.12634 29.0981 10.6245 28.1846 11.9915 27.7839C12.229 27.7162 12.5603 28.7616 12.7136 27.0422C13.0515 28.1904 13.5539 27.7991 13.9383 27.0422C13.6715 26.6357 13.4516 27.5094 13.2228 27.2898V27.2898ZM14.7717 15.9988C14.9252 15.6694 15.4877 16.0268 15.2763 15.4895C14.3561 15.8691 13.754 15.9439 12.9692 16.473H12.7136L12.8603 16.7277C13.4115 17.0921 13.7984 15.7862 14.1606 16.9835L13.5805 17.223C13.6715 18.0477 14.0226 17.1821 14.3385 17.4706L14.4116 16.2394L14.4473 17.4706L14.5897 17.7112L14.7717 15.9988ZM11.9225 14.52C11.658 15.0982 11.5045 14.7127 11.3069 15.0012H11.1288H11.8868L11.9225 15.7523C13.2428 14.1975 14.345 16.0747 15.4163 14.0328C15.0741 14.0469 14.2494 14.0948 13.7228 14.2735C13.3316 14.4102 12.2536 15.4568 12.6426 14.2735C12.3781 14.5819 12.1267 14.0048 11.9556 15.2489L11.9225 14.52ZM8.38166 30.425L8.67286 29.9438L8.38166 30.425ZM15.8854 8.8686L15.9209 10.1068C15.7409 10.553 15.4409 10.2645 15.2008 10.3404C15.2987 8.95037 15.8342 10.553 15.8854 8.8686ZM10.8776 12.0529C11.4845 11.8601 12.158 11.6884 12.8248 11.331C13.8674 10.7458 14.8607 12.0108 15.9209 10.5939L16.0633 9.84397C16.3989 9.16413 16.8835 9.98298 17.2212 9.59166L16.6789 8.62213L15.9209 8.62796C15.6298 9.15128 15.2162 8.87561 14.9876 9.84397C14.512 8.59993 13.4583 10.9385 13.1113 9.84397C12.4225 11.178 11.2311 11.206 10.3419 11.5564L9.86855 11.7842C9.96212 11.4887 10.6133 12.1276 10.8776 12.0529V12.0529ZM23.9224 3.62141C23.587 4.12487 22.8179 3.45788 22.5534 4.37135C22.9713 3.90994 23.4601 4.633 23.9224 3.62141ZM19.6728 18.4191L19.7593 18.3712L19.6728 18.4191ZM91.6116 18.9284C91.9741 21.6665 92.1027 28.507 91.6784 31.3186C91.7361 30.0816 91.8317 28.8714 91.8561 27.3786C91.9094 24.1125 91.7339 21.0264 91.6116 18.9284ZM61.4099 25.8051L61.9901 25.5435C61.8346 26.2922 61.6546 25.9687 61.4099 25.8051ZM49.3255 24.5459C50.0078 23.8041 50.4812 24.0296 51.0969 24.4782C50.6458 25.193 49.8632 24.7597 49.3255 24.5459ZM50.0833 25.5014L50.3746 25.0003L50.0833 25.5014ZM46.5471 24.6487L46.4025 23.4198L46.6181 23.6605L46.5471 24.6487ZM46.1135 23.4327L46.3314 23.4198L46.4781 24.4011C46.4493 25.0961 46.0603 24.8426 46.1135 23.4327V23.4327ZM44.7043 21.267L44.9246 21.7401L44.7043 21.267ZM43.8399 21.5345C43.962 20.2426 44.3221 20.8745 44.5267 21.5065C44.3399 21.9188 44.1644 21.5555 43.8399 21.5345ZM42.5796 22.5589L42.7951 22.7926L42.5796 22.5589ZM41.8926 23.3217L41.6771 23.0811L41.8926 23.3217ZM38.0322 22.455L38.6498 22.1886C38.4212 22.497 38.2521 22.5589 38.0322 22.455ZM35.2804 1.40783C35.7293 1.29803 36.474 0.569122 36.9362 1.60875C36.3606 1.68234 35.7293 1.80733 35.2804 1.40783ZM35.9027 20.5451L36.2295 21.2728L35.9027 20.5451ZM27.8278 22.469L28.0434 22.462L27.8278 22.469ZM26.6719 22.7377C27.0744 22.2506 27.2632 22.8206 27.7212 22.4772C27.5233 23.7282 26.9765 23.3217 26.6719 22.7377ZM22.5222 23.5425L22.9602 23.5285L22.5222 23.5425ZM21.1908 24.7865L21.442 24.5331L21.1908 24.7865ZM20.9731 25.5295L21.262 26.0236L20.9731 25.5295ZM18.4879 23.5904L18.7705 23.838L18.4879 23.5904ZM18.3769 24.0845L18.1947 23.838L18.3059 23.3497L18.3769 23.5974V24.0845ZM17.6546 23.838L18.1592 23.5974L17.6546 23.838ZM14.2318 25.0751L14.4473 24.5879L14.2318 25.0751ZM6.14788 24.7258L6.47466 24.7316L6.14788 24.7258ZM4.95437 25.6603L5.09882 26.402L4.95437 25.6603ZM91.607 18.8934L91.5561 18.0628C91.3184 17.0723 91.2404 15.6145 91.0469 14.652C89.8378 8.68988 87.7841 9.72133 86.0972 9.98299C84.141 10.2925 82.1119 10.2785 80.2204 8.77865C79.7871 8.44223 79.3692 8.60694 78.9558 8.33944C78.2224 7.89789 77.5131 6.82672 76.7886 6.72977C74.3836 6.39335 71.9256 6.00087 69.4295 4.35148C67.5623 3.11328 65.8909 4.06179 64.1284 3.59572C63.1993 3.34691 62.2502 3.2301 61.3145 2.96844C58.1693 2.09585 54.8042 2.69393 51.7593 1.85522C48.9609 1.09828 46.2693 0.871671 43.6398 0.169632C40.5769 -0.634032 37.2474 1.73724 34.8071 0.67893C34.8226 2.09586 34.7492 1.4639 34.629 1.42185L34.7357 0.92657C33.7269 0.706964 32.2331 1.1193 30.9883 2.00006L31.4574 2.48133C30.3194 2.98946 29.0569 4.31645 28.0323 3.05838L28.2855 2.55609C27.7011 2.76985 27.1031 2.93456 26.1564 3.09927L26.1209 3.82817C25.7785 3.11328 25.4918 4.7428 25.1872 4.83275C24.9382 4.89466 24.5405 4.26855 24.2091 4.60497C23.4803 5.34088 22.4136 5.49274 21.9044 5.86304C21.1153 6.44826 20.2774 5.5196 19.4884 5.89807C17.6746 6.76481 15.6342 7.26594 13.9029 8.12568C14.7029 9.69446 15.5519 7.27294 16.3589 8.38032L16.1788 8.8686L16.572 8.38032L16.3944 8.12568C16.9945 7.32785 17.7192 7.41079 18.4483 7.63157C18.9995 7.79627 19.5794 6.94354 19.9972 8.33944C19.0237 8.27753 18.2082 9.39192 17.328 9.10339L17.6167 10.0788C17.1278 11.0425 16.6499 9.93509 16.2833 11.0822C17.1434 11.2831 18.1727 10.0367 19.097 11.0495C18.6571 11.88 18.2548 10.7061 17.9437 11.8052L18.2304 12.0529C17.7968 12.4582 17.1946 12.6369 16.6789 12.7958C16.3345 12.9056 15.9143 12.2258 15.7409 14.0328L16.1434 13.2841C17.1391 13.5983 18.3059 12.6778 19.6371 13.7583C18.7794 14.8856 17.6278 14.0048 16.8234 15.4895C17.1345 15.7032 17.4591 14.7337 17.7258 15.4895C17.1278 16.57 16.579 16.3294 15.8499 16.473C17.4036 17.1821 19.5237 15.917 21.1553 17.911C20.7998 18.0547 20.2486 18.0407 19.7593 18.3712L19.855 19.1562C23.4535 19.4856 25.6163 17.8491 28.619 18.2755C25.4317 19.5616 22.8179 19.224 19.5307 20.3792L19.6016 20.8745C18.6105 21.5006 17.6546 20.6128 16.6434 20.9095L16.4655 21.8849C15.2987 21.5894 13.7028 21.7401 12.2491 23.1161L11.7046 23.3638C9.23283 24.0296 6.70361 23.6733 4.55868 23.9198L4.95653 24.6767C4.67873 24.526 4.312 24.9454 4.08972 24.3882L4.12527 23.6605L3.65629 23.6313V24.3683C3.32504 24.533 3.11391 23.9618 2.7894 24.0646L2.75393 25.0552C1.99815 25.1031 1.26029 23.1231 0.586851 24.0997C1.05573 25.3297 1.66265 24.1347 2.06485 25.735C2.56501 24.3403 3.11615 28.0257 3.58295 26.3203L3.14954 25.811L3.76294 25.5984C3.9719 25.7841 4.32749 27.152 4.34305 26.3693C4.55644 25.5516 4.09862 25.9909 4.08972 25.1311C4.38311 24.9454 4.48541 25.6393 4.66541 25.3986C4.6232 27.4078 5.08317 26.3822 5.28115 27.3926L5.38772 26.6707C6.56124 27.4206 6.99465 27.7711 8.09501 27.4825L7.91268 26.7385C8.5395 26.395 9.51739 26.5679 10.6199 26.7805L10.7667 27.2828L10.8377 26.5399C11.1846 26.4791 11.4756 26.6777 11.6645 26.0738L11.4534 25.3227C11.6979 25.186 12.1824 24.6487 12.3157 25.3227L11.7756 26.3063C12.3113 27.0562 12.6159 25.7841 13.1472 25.5774C13.9161 25.2678 14.8385 26.1287 15.4208 25.3297L15.5987 24.3462L15.1298 24.0927C15.3697 23.6792 15.6187 23.7142 15.7787 23.8509V24.5879C15.9498 24.6709 15.9699 23.7411 16.1788 24.0927L16.2478 25.0751C17.3723 23.6172 19.0082 25.0143 19.8596 25.0552L20.2528 24.8006L20.1106 25.3028L20.3951 24.5529C20.3196 26.5609 20.9775 23.6733 20.9398 25.5295C20.5952 26.0107 19.5905 25.2409 19.028 26.2864C20.7108 26.5048 21.5999 26.3401 23.0312 26.2315C22.7602 24.0238 22.1245 26.8845 21.6599 25.2678C22.0111 23.9548 22.3422 24.6709 22.9247 24.519L23.0312 25.5014L23.5358 25.4886L23.3936 25.9909L23.969 26.2245C23.9847 24.8975 23.6492 25.943 23.5713 25.2409C23.8737 24.1125 24.1225 25.3986 24.3672 24.2504C25.3006 24.8695 26.941 24.2305 28.2258 22.9432L28.0789 22.462C28.4145 22.1664 28.7901 21.7202 29.0169 22.448L28.2613 23.1991C28.6035 23.0811 28.6991 22.9783 28.8723 23.9128L29.2701 23.4117C29.0145 24.2305 28.7458 25.0751 28.4034 24.1826L28.5145 23.6792C27.3853 25.158 25.4583 24.5938 24.3981 25.728C26.7566 25.832 29.8461 24.9244 32.0086 23.5974C31.6575 22.5718 31.2284 24.4781 30.9639 23.3778C31.324 22.4772 31.7441 21.7401 32.1197 22.615L32.2307 23.838C32.4863 23.8719 33.2112 24.1195 33.5266 23.0682L32.8799 22.8405C34.3669 21.4387 36.1363 21.8709 37.6365 22.469C36.8406 22.8486 36.1716 22.6477 35.4382 22.5321C34.9736 22.448 34.469 22.6699 33.9246 23.3019C36.1363 23.7621 39.0634 22.587 41.6061 23.0811C41.0259 24.0366 39.8746 23.4327 39.4411 23.8859L39.2256 23.9011L39.1899 24.1417C39.6479 24.3333 39.9967 23.949 40.3792 24.3462L40.2747 24.8426C41.8926 25.2059 43.782 26.5878 45.2869 24.6767C45.0733 24.3263 44.8267 24.9781 44.7422 23.7142L45.3935 23.4525C44.9601 23.2329 44.3756 23.9011 44.0221 22.7657C44.7422 22.5321 45.3691 22.7926 45.827 23.4397L45.7203 23.6862L46.078 23.6792L46.007 24.6569V23.6792L45.9691 24.8975L45.5779 25.158C46.667 24.5938 47.9739 27.5573 49.221 26.5048C49.7076 26.0995 50.23 25.7421 50.6989 26.4651C51.2101 25.6942 51.6592 26.5878 52.2504 26.8985C53.9974 27.8412 55.9399 28.0257 57.8382 27.6811C58.6739 27.5164 59.4585 28.1554 60.2232 28.0596C60.9832 27.9697 61.7767 26.9043 62.5992 26.7466C64.3529 26.8564 66.111 27.7839 67.8691 28.2512C71.3187 29.174 74.7193 32.509 78.0844 33.6981C79.8627 34.3172 81.643 37.1569 83.3943 37.6183C84.3435 37.8776 85.6792 37.137 86.3885 38.4699C86.8661 38.0026 87.3973 38.9873 88.0843 39.6123L88.4464 39.8307C88.86 38.1404 89.5335 41.16 89.6711 40.2723V41L89.8533 40.2582L89.9624 40.9813C90.3268 40.5479 90.5782 38.1732 91.0382 37.2527C91.816 34.5099 92.434 24.2223 91.607 18.8934V18.8934ZM86.9286 38.9243V39.9148L87.035 38.9243H86.9286ZM5.42333 29.6132C5.1899 29.6354 5.1988 29.4345 5.02539 29.3539L5.42333 29.6132ZM26.5674 27.4078L26.7831 27.8961L26.5674 27.4078ZM26.243 27.6484H26.4209C26.3495 27.145 25.9074 27.5783 26.243 27.6484ZM21.262 27.9778C21.5021 27.9568 21.5531 27.7711 21.771 27.9697L21.262 27.9778ZM13.9738 27.2898C14.2161 27.1321 14.554 27.6192 14.7362 27.0422C14.5272 26.534 14.1471 26.7747 13.9738 27.2898ZM26.4209 26.4312L25.9563 26.6777C26.1653 26.7607 26.2073 27.1251 26.4209 26.4312ZM15.0231 26.8015L15.5987 27.0422L15.0231 26.8015ZM28.3679 26.3822C28.6679 26.9043 28.848 25.5154 28.3679 26.3822V26.3822ZM27.3633 26.402L27.6811 26.1544L27.3633 26.402ZM15.9254 26.5609L15.7097 26.8015C16.0165 26.9873 16.4921 26.5048 15.9254 26.5609ZM17.6546 26.5399L17.9478 26.0516L17.6546 26.5399ZM29.7037 26.0995H30.0303H29.7037ZM18.0902 26.5399H18.3458H18.0902ZM17.2967 25.8051L16.5365 25.811L16.5411 26.8015C16.9301 26.6579 17.1857 26.7606 17.4902 26.3693L17.2967 25.8051ZM17.9437 25.5633L18.2304 25.3227L17.9437 25.5633ZM33.6379 24.7865L33.9956 25.0213L33.6379 24.7865ZM38.3988 24.1604L38.5033 24.4081C38.9344 24.1966 38.6588 23.4876 38.3988 24.1604ZM17.4746 19.6784C17.2212 19.4097 16.6234 18.9483 16.4299 19.919C16.7011 19.5195 17.0723 19.7333 17.4746 19.6784ZM14.9876 20.1655C14.7229 19.9529 14.2072 20.2823 13.6915 20.1655L13.7228 19.4377L13.4694 19.4296L13.6514 20.1655C12.9113 21.3266 11.8511 20.3372 11.2355 22.3662C11.7446 22.1256 12.8403 21.9737 13.545 20.9166C13.8138 21.2308 14.4761 20.3045 14.9876 20.1655V20.1655ZM11.3465 19.6784L10.9132 20.1655C11.2112 19.919 11.54 19.8629 11.8868 19.919L11.3465 19.6784ZM19.6371 19.1562L19.5307 18.9214C18.8195 19.0032 18.0704 18.9775 17.5103 19.4296C18.3414 19.4926 18.8304 19.3069 19.4216 19.1621L19.6371 19.1562ZM13.9738 18.4542C13.407 18.1236 14.0539 19.5125 14.0851 18.4542H13.9738ZM16.2143 17.9519C15.6142 17.904 15.1542 18.0967 14.8052 18.1925C15.2432 18.6469 15.7208 18.9284 16.2143 17.9519ZM14.1206 18.7006H14.554H14.1206ZM14.6962 16.7277L14.6607 16.473L14.6252 17.4706C14.9563 17.3608 15.3142 17.7732 15.4563 16.9765C15.2363 16.8387 14.8385 17.9449 14.6962 16.7277V16.7277ZM16.5365 15.2489C16.2655 15.4287 15.8475 14.8517 15.7787 15.7523L16.2478 15.4895L16.5365 15.2489ZM9.32848 13.2619L8.96841 13.2479L9.32848 13.2619ZM10.7354 13.7712C11.1179 13.7303 11.6421 13.0621 12.0312 13.2841C11.7645 12.6369 11.0532 13.1591 10.7354 13.7712V13.7712ZM12.1067 13.0364L12.5714 12.7958C13.4472 12.6498 12.2491 12.3344 12.1067 13.0364ZM14.6607 11.8122L14.2675 12.0657L14.6607 11.8122ZM13.7629 12.3134L14.2318 12.0657C14.0095 11.7503 13.5184 12.2036 13.1472 12.3134H13.7629ZM9.72193 11.7842C9.34854 11.7982 9.52427 12.9804 9.72193 11.7842V11.7842ZM17.7968 11.5564L17.2567 11.8052L17.7968 11.5564ZM16.8944 8.12568L16.7879 8.62213C17.0766 8.55204 17.1746 8.64899 17.399 8.37332C17.6635 7.99485 17.0324 8.15371 16.8944 8.12568ZM25.1117 3.35508C24.7449 3.84218 24.4227 3.22308 24.1025 3.86905C24.3715 3.90994 24.8716 4.22065 25.1117 3.35508ZM25.2584 3.59572H25.6518H25.2584ZM28.5369 2.80373C29.1945 2.75584 29.8258 3.01049 30.3727 2.01993C29.7906 2.48133 29.0569 1.92297 28.5369 2.80373ZM30.9128 1.76527L30.6263 2.01291L30.9128 1.76527Z" fill="#100F0D" />
</svg>

<svg viewBox="0 0 92 41" fill="none" xmlns="http://www.w3.org/2000/svg" preserveAspectRatio="none"><path d="m13.223 27.29-.332-.73c-.32-.055-.626 1.788-.969.482l-1.23.722c-.185-.398 0-.02-.217.24-1.002 1.225-2.534.056-3.465-.054-.302-.05-.649.138-.938-.042-.653-.358-1.26-.35-2.091-.818-.33-.192-.678.042-1.014-.055-.978-.33-1.92-1.546-2.967-1.3 2.36 1.713 4.972 2.924 7.59 3.212 1.536.151 3.034-.762 4.402-1.163.237-.068.568.978.722-.742.338 1.148.84.757 1.224 0-.267-.406-.486.467-.715.248Zm1.549-11.291c.153-.33.716.028.504-.51-.92.38-1.522.455-2.307.984h-.255l.146.255c.552.364.938-.942 1.3.255l-.58.24c.091.825.443-.04.758.248l.074-1.232.035 1.232.143.24.182-1.712Zm-2.85-1.479c-.264.578-.418.193-.615.481h-.178.758l.035.751c1.32-1.555 2.423.323 3.494-1.72-.342.015-1.167.063-1.693.242-.391.136-1.47 1.183-1.08 0-.265.308-.516-.27-.687.975l-.034-.729Zm-3.54 15.905.29-.481-.29.481Zm7.503-21.556.036 1.238c-.18.446-.48.158-.72.233.098-1.39.633.213.684-1.471Zm-5.007 3.184c.607-.193 1.28-.365 1.947-.722 1.042-.585 2.036.68 3.096-.737l.142-.75c.336-.68.82.139 1.158-.252l-.542-.97-.758.006c-.291.523-.705.248-.933 1.216-.476-1.244-1.53 1.095-1.877 0-.689 1.334-1.88 1.362-2.77 1.712l-.472.228c.093-.295.744.344 1.009.269ZM23.922 3.62c-.335.504-1.104-.163-1.369.75.418-.461.907.262 1.37-.75Zm-4.25 14.798.087-.048-.086.048Zm71.94.51c.362 2.738.49 9.578.066 12.39.058-1.237.154-2.448.178-3.94.053-3.267-.122-6.353-.244-8.45ZM61.41 25.804l.58-.261c-.155.748-.335.425-.58.261Zm-12.084-1.26c.682-.74 1.155-.515 1.77-.067-.45.715-1.233.282-1.77.068Zm.757.956.292-.5-.292.5Zm-3.536-.852-.144-1.23.215.241-.07.989Zm-.433-1.216.217-.013.147.981c-.029.695-.418.442-.364-.968Zm-1.41-2.166.22.473-.22-.473Zm-.864.268c.122-1.292.482-.66.687-.029-.187.413-.363.05-.687.029Zm-1.26 1.024.215.234-.215-.234Zm-.687.763-.216-.24.216.24Zm-3.86-.867.617-.266c-.229.308-.398.37-.618.266ZM35.28 1.408c.45-.11 1.194-.839 1.656.2-.575.074-1.207.2-1.656-.2Zm.623 19.137.327.728-.327-.728Zm-8.075 1.924.215-.007-.215.007Zm-1.156.269c.402-.487.591.083 1.05-.26-.199 1.25-.745.844-1.05.26Zm-4.15.805.438-.014-.438.014Zm-1.331 1.244.251-.254-.251.253Zm-.218.742.289.495-.289-.495Zm-2.485-1.939.282.248-.282-.248Zm-.111.494-.182-.246.11-.488.072.247v.487Zm-.722-.246.504-.24-.504.24Zm-3.423 1.237.215-.487-.215.487Zm-8.084-.35.327.007-.327-.006Zm-1.194.935.145.742-.145-.742Zm86.653-6.767-.05-.83c-.239-.99-.317-2.448-.51-3.411-1.21-5.962-3.263-4.93-4.95-4.669-1.956.31-3.985.295-5.877-1.204-.433-.337-.85-.172-1.264-.44-.734-.441-1.443-1.512-2.167-1.61-2.405-.336-4.863-.728-7.36-2.378-1.867-1.238-3.538-.29-5.3-.755-.93-.25-1.879-.366-2.815-.628-3.145-.872-6.51-.274-9.555-1.113-2.798-.757-5.49-.983-8.12-1.685-3.062-.804-6.392 1.567-8.832.509.016 1.417-.058.785-.178.743l.107-.495c-1.01-.22-2.503.192-3.748 1.073l.47.481c-1.139.508-2.401 1.835-3.426.577l.253-.502c-.584.214-1.182.379-2.129.543l-.035.73c-.342-.716-.63.914-.934 1.004-.249.062-.646-.564-.978-.228-.729.736-1.795.888-2.305 1.258-.789.585-1.627-.343-2.416.035-1.813.867-3.854 1.368-5.585 2.228.8 1.568 1.649-.853 2.456.254l-.18.489.393-.489-.178-.254c.6-.798 1.325-.715 2.054-.494.552.164 1.131-.688 1.55.707-.974-.061-1.79 1.053-2.67.764l.289.976c-.49.963-.967-.144-1.334 1.003.86.201 1.89-1.045 2.814-.033-.44.831-.842-.343-1.153.756l.286.248c-.433.405-1.035.584-1.551.743-.345.11-.765-.57-.938 1.237l.402-.749c.996.314 2.163-.606 3.494.474-.858 1.128-2.01.247-2.814 1.732.311.213.636-.756.903 0-.598 1.08-1.147.84-1.876.983 1.554.71 3.674-.556 5.305 1.438-.355.144-.906.13-1.396.46l.096.785c3.598.33 5.761-1.307 8.764-.88-3.187 1.286-5.801.948-9.088 2.103l.07.495c-.99.627-1.946-.261-2.958.036l-.178.975c-1.166-.296-2.762-.145-4.216 1.231l-.544.248c-2.472.666-5.001.31-7.146.556l.398.757c-.278-.151-.645.268-.867-.289l.035-.728-.469-.029v.737c-.331.165-.542-.406-.867-.303l-.035.99c-.756.048-1.494-1.932-2.167-.955.469 1.23 1.076.035 1.478 1.635.5-1.395 1.051 2.29 1.518.585l-.433-.509.613-.213c.209.186.564 1.554.58.771.213-.817-.244-.378-.253-1.238.293-.186.395.508.575.268-.042 2.009.418.983.616 1.994l.107-.722c1.173.75 1.607 1.1 2.707.812l-.182-.745c.627-.343 1.604-.17 2.707.043l.147.502.07-.743c.348-.06.639.138.828-.466l-.212-.751c.245-.137.73-.674.863 0l-.54.983c.535.75.84-.522 1.371-.729.77-.31 1.691.552 2.274-.247l.178-.984-.47-.253c.24-.414.49-.379.65-.242v.737c.17.083.19-.847.4-.495l.069.982c1.124-1.458 2.76-.06 3.612-.02l.393-.254-.142.502.284-.75c-.075 2.008.582-.88.545.976-.345.482-1.35-.288-1.912.757 1.683.219 2.572.054 4.003-.055-.27-2.207-.906.653-1.371-.963.351-1.313.682-.597 1.265-.749l.106.982.505-.012-.142.502.575.233c.016-1.326-.32-.281-.398-.983.303-1.128.551.158.796-.99.934.618 2.574-.02 3.859-1.308l-.147-.481c.335-.296.711-.742.938-.014l-.756.751c.343-.118.438-.22.611.714l.398-.501c-.255.819-.524 1.663-.867.77l.112-.503c-1.13 1.479-3.057.915-4.117 2.049 2.359.104 5.448-.804 7.61-2.13-.35-1.026-.78.88-1.044-.22.36-.9.78-1.638 1.156-.763l.11 1.223c.256.034.981.281 1.297-.77l-.647-.228c1.487-1.401 3.256-.97 4.756-.371-.795.38-1.464.179-2.198.063-.464-.084-.969.138-1.513.77 2.211.46 5.138-.715 7.681-.22-.58.955-1.731.35-2.165.804l-.215.015-.036.24c.458.192.807-.192 1.19.205l-.105.497c1.618.363 3.507 1.745 5.012-.166-.214-.35-.46.301-.545-.963l.652-.261c-.434-.22-1.018.448-1.372-.687.72-.234 1.347.027 1.805.674l-.107.246.358-.007-.071.978v-.978l-.038 1.219-.391.26c1.089-.564 2.396 2.4 3.643 1.347.487-.405 1.009-.763 1.478-.04.511-.77.96.123 1.551.433 1.747.943 3.69 1.128 5.588.783.836-.165 1.62.474 2.385.379.76-.09 1.554-1.156 2.376-1.313 1.754.11 3.512 1.037 5.27 1.504 3.45.923 6.85 4.258 10.215 5.447 1.779.62 3.559 3.459 5.31 3.92.95.26 2.285-.481 2.994.852.478-.467 1.01.517 1.696 1.142l.362.219c.414-1.69 1.088 1.329 1.225.441V41l.182-.742.11.723c.364-.433.615-2.808 1.075-3.728.778-2.743 1.396-13.03.569-18.36Zm-4.678 20.031v.99l.106-.99h-.106Zm-81.506-9.31c-.233.021-.224-.18-.398-.26l.398.26Zm21.144-2.206.216.488-.216-.488Zm-.324.24h.178c-.072-.503-.514-.07-.178 0Zm-4.981.33c.24-.021.291-.207.509-.008l-.509.008Zm-7.288-.688c.242-.158.58.33.762-.248-.209-.508-.589-.267-.762.248Zm12.447-.859-.465.247c.21.083.251.447.465-.247Zm-11.398.37.576.241-.576-.24Zm13.345-.419c.3.522.48-.867 0 0Zm-1.005.02.318-.248-.318.248Zm-11.438.159-.215.24c.306.186.782-.296.215-.24Zm1.73-.021.293-.488-.293.488Zm12.049-.44h.326-.326Zm-11.614.44h.256-.256Zm-.793-.735-.76.006.004.99c.39-.143.645-.04.95-.432l-.194-.564Zm.647-.242.286-.24-.286.24Zm15.694-.776.358.234-.358-.235Zm4.76-.627.105.248c.431-.211.156-.92-.104-.248Zm-20.923-4.482c-.254-.268-.852-.73-1.045.241.271-.4.642-.186 1.045-.24Zm-2.487.488c-.265-.213-.78.116-1.296 0l.03-.728-.253-.008.182.736c-.74 1.16-1.8.171-2.415 2.2.509-.24 1.604-.392 2.309-1.45.269.315.931-.611 1.443-.75Zm-3.641-.488-.434.488c.298-.247.627-.303.974-.247l-.54-.24Zm8.29-.522-.106-.235c-.711.082-1.46.056-2.02.509.83.063 1.32-.123 1.91-.268l.216-.006Zm-5.663-.702c-.567-.33.08 1.058.111 0h-.111Zm2.24-.502c-.6-.048-1.06.145-1.409.24.438.455.916.736 1.41-.24Zm-2.093.749h.433-.433Zm.575-1.973-.035-.255-.036.998c.331-.11.69.302.831-.494-.22-.138-.617.968-.76-.25Zm1.84-1.48c-.27.18-.689-.396-.757.504l.469-.263.288-.24Zm-7.208-1.986-.36-.014.36.014Zm1.407.51c.383-.042.907-.71 1.296-.488-.267-.647-.978-.125-1.296.487Zm1.372-.736.464-.24c.876-.146-.322-.462-.464.24Zm2.554-1.224-.393.254.393-.254Zm-.898.501.469-.247c-.223-.316-.714.138-1.085.247h.616Zm-4.041-.529c-.373.014-.198 1.196 0 0Zm8.075-.228-.54.25.54-.25Zm-.903-3.43-.106.496c.289-.07.387.027.611-.249.264-.378-.367-.22-.505-.247Zm8.218-4.77c-.367.486-.69-.133-1.01.513.27.04.77.352 1.01-.514Zm.146.24h.394-.394Zm3.279-.792c.658-.048 1.289.206 1.836-.784-.582.461-1.316-.097-1.836.784Zm2.376-1.039-.287.248.287-.248Z" fill="#100F0D"/></svg>
